icons/baby_0203_alt_fill.svg

<svg width="48" height="48" viewBox="0 0 48 48" fill="none" xmlns="http://www.w3.org/2000/svg">
<path d="M23.9999 18C27.3138 18 30 15.3138 30 12.0001C30 8.68635 27.3138 6 23.9999 6C20.6862 6 18 8.68635 18 12.0001C18 15.3138 20.6862 18 23.9999 18Z" fill="black"/>
<path fill-rule="evenodd" clip-rule="evenodd" d="M15 16.4468V34.0411C15 37.452 17.8125 41.9998 24 41.9998C30.1875 41.9998 33 38.0205 33 34.0411V33.1864C31.556 29.5155 28.5648 25.843 24.9861 22.7524C22.9581 21.0011 20.7695 19.4608 18.615 18.2304C18.4277 18.1283 18.2384 18.0224 18.0469 17.9127C17.0121 17.3464 15.9892 16.854 15 16.4468ZM25.0324 20.1911C25.4587 20.5318 25.8794 20.8813 26.2933 21.2387C28.893 23.4838 31.2616 26.078 33 28.8306V16.9998C29.9579 19.178 27.49 20.1857 25.0324 20.1911Z" fill="black"/>
</svg>

<svg
  xmlns="http://www.w3.org/2000/svg"
  width="24"
  height="24"
  viewBox="0 0 24 24"
  fill="none"
  stroke="currentColor"
  stroke-width="2"
  stroke-linecap="round"
  stroke-linejoin="round"
>
  <path d="M24 18a6 6 0 1 0 0-12 6 6 0 0 0 0 12" />
  <path
    fill-rule="evenodd"
    d="M15 16.447V34.04C15 37.452 17.813 42 24 42c6.188 0 9-3.98 9-7.959v-.855c-1.444-3.67-4.435-7.343-8.014-10.434a41 41 0 0 0-6.371-4.522 31 31 0 0 1-.568-.317A31 31 0 0 0 15 16.447m10.032 3.744q.64.51 1.261 1.048c2.6 2.245 4.969 4.839 6.707 7.592V17c-3.042 2.178-5.51 3.186-7.968 3.191"
    clip-rule="evenodd"
  />
</svg>
